svgs/sharp-solid/hand-middle-finger.svg

<svg xmlns="http://www.w3.org/2000/svg" viewBox="0 0 448 512"><!--! Font Awesome Pro 6.6.0 by @fontawesome - https://fontawesome.com License - https://fontawesome.com/license (Commercial License) Copyright 2024 Fonticons, Inc. --><path d="M272 0L192 0l0 192-80 0 0 32 0 13.3 0 2.7 0 80 0 16-32 0 0-16 0-56L32 304l0 57.5c0 44.7 19.8 87 54.1 115.6c27 22.5 61.1 34.9 96.3 34.9L304 512c70.7 0 128-57.3 128-128l0-16 0-48 0-80-80 0 0-32-80 0L272 0z"/></svg>

<svg xmlns="http://www.w3.org/2000/svg" viewBox="0 0 448 512"><!--! Font Awesome Pro 6.5.2 by @fontawesome - https://fontawesome.com License - https://fontawesome.com/license (Commercial License) Copyright 2024 Fonticons, Inc. --><path d="M272 0H192V192H112v32 13.3V240v80 16H80V320 264L32 304v57.5c0 44.7 19.8 87 54.1 115.6c27 22.5 61.1 34.9 96.3 34.9H304c70.7 0 128-57.3 128-128V368 320 240H352V208H272V0z"/></svg>
